material-icons/material-design-light/scalable/applications/whatsapp.svg

﻿<?xml version="1.0" encoding="utf-8"?>
<!DOCTYPE svg PUBLIC "-//W3C//DTD SVG 1.1//EN" "http://www.w3.org/Graphics/SVG/1.1/DTD/svg11.dtd">
<svg xmlns="http://www.w3.org/2000/svg" xmlns:xlink="http://www.w3.org/1999/xlink" version="1.1" baseProfile="full" width="24" height="24" viewBox="0 0 24.00 24.00" enable-background="new 0 0 24.00 24.00" xml:space="preserve">
	<path fill="#231F20" fill-opacity="1" fill-rule="evenodd" stroke-width="0.2" stroke-linejoin="round" d="M 16.748,13.9562C 16.9917,14.0896 17.1553,14.1584 17.2137,14.2642C 17.2721,14.3703 17.2536,14.8684 17.0245,15.4409C 16.7954,16.0136 15.7589,16.5361 15.3013,16.5601C 14.8441,16.5848 14.8314,16.9171 12.3404,15.8267C 9.84975,14.7357 8.35113,12.0834 8.233,11.9128C 8.11488,11.7427 7.26854,10.5266 7.3143,9.30327C 7.36005,8.07952 8.02499,7.50188 8.26221,7.26206C 8.49943,7.02127 8.77105,6.96934 8.93688,6.97551L 9.41295,7.01413C 9.55801,7.01965 9.7683,6.94468 9.95684,7.44995L 10.6546,9.32469C 10.712,9.45125 10.748,9.59793 10.6588,9.76084L 10.3946,10.1663L 10.0052,10.588C 9.87604,10.7071 9.74104,10.8369 9.87701,11.091C 10.013,11.3455 10.4816,12.1783 11.1962,12.8652C 12.1139,13.7475 12.9057,14.0406 13.1498,14.174C 13.3938,14.308 13.5395,14.2931 13.6911,14.1324L 14.515,13.1874C 14.6899,12.9444 14.8541,12.9922 15.079,13.0836L 16.748,13.9562 Z M 12,2C 17.5228,2 22,6.47715 22,12C 22,17.5229 17.5228,22 12,22C 10.0322,22 8.19707,21.4316 6.64996,20.45L 2,22L 3.54999,17.35C 2.5684,15.8029 2,13.9678 2,12C 2,6.47715 6.47715,2 12,2 Z M 12,4.00001C 7.58172,4.00001 4,7.58173 4,12C 4,13.7176 4.54129,15.3088 5.46258,16.6122L 4.5,19.5L 7.38775,18.5374C 8.69122,19.4587 10.2824,20 12,20C 16.4183,20 20,16.4183 20,12C 20,7.58173 16.4183,4.00001 12,4.00001 Z "/>
</svg>

<?xml version="1.0" encoding="UTF-8" standalone="no"?>
<svg id="svg2" xmlns:rdf="http://www.w3.org/1999/02/22-rdf-syntax-ns#" xmlns="http://www.w3.org/2000/svg" xml:space="preserve" height="24" width="24" version="1.1" enable-background="new 0 0 24.00 24.00" xmlns:cc="http://creativecommons.org/ns#" xmlns:dc="http://purl.org/dc/elements/1.1/" viewBox="0 0 24.00 24.00"><metadata id="metadata10"><rdf:RDF><cc:Work rdf:about=""><dc:format>image/svg+xml</dc:format><dc:type rdf:resource="http://purl.org/dc/dcmitype/StillImage"/><dc:title/></cc:Work></rdf:RDF></metadata><path id="path4" stroke-linejoin="round" d="m16.748 13.956c0.244 0.134 0.407 0.202 0.466 0.308 0.058 0.106 0.04 0.604-0.19 1.177-0.229 0.573-1.265 1.095-1.723 1.119-0.457 0.025-0.47 0.357-2.961-0.733-2.4902-1.091-3.9889-3.744-4.107-3.914s-0.9645-1.386-0.9187-2.6097c0.0457-1.2238 0.7107-1.8014 0.9479-2.0412 0.2372-0.2408 0.5088-0.2928 0.6747-0.2866l0.4761 0.0386c0.145 0.0055 0.3553-0.0694 0.5438 0.4359l0.6982 1.8747c0.057 0.1265 0.093 0.2732 0.004 0.4361l-0.264 0.4052-0.39 0.422c-0.129 0.119-0.264 0.249-0.128 0.503 0.136 0.255 0.605 1.087 1.319 1.774 0.918 0.883 1.71 1.176 1.954 1.309 0.244 0.134 0.39 0.119 0.541-0.042l0.824-0.945c0.175-0.243 0.339-0.195 0.564-0.103l1.669 0.872zm-4.748-11.956c5.523 0 10 4.4772 10 10 0 5.523-4.477 10-10 10-1.968 0-3.8029-0.568-5.35-1.55l-4.65 1.55 1.55-4.65c-0.9816-1.547-1.55-3.382-1.55-5.35 0-5.5228 4.4772-10 10-10zm0 2c-4.4183 0-8 3.5817-8 8 0 1.718 0.5413 3.309 1.4626 4.612l-0.9626 2.888 2.8878-0.963c1.3034 0.922 2.8942 1.463 4.6122 1.463 4.418 0 8-3.582 8-8 0-4.4183-3.582-8-8-8z" fill-rule="evenodd" stroke-width=".2"/></svg>
